X:1
T:Miss Flora McDonald's Reel
S:Bremner's Reels, p. 21 (Section 3, 1757)
L:1/4
M:C|
K:D
F/ | EE/F/ B/F/E/F/ | EE/F/ d/F/D/F/ | EE/F/ D/F/G/A/ | (B/4c/4d/) A/G/ F/D/D/ :|
|: F/ | E/(e/e/)d/ e/E/E/F/ | E/(e/e/)c/ d/D/D/F/ | E/e/e/d/ B/c/d/B/ | (e/4f/4g/) ~f/e/ d/D/D/ :|
